src/static/logos/whalar.svg

<svg width="256" height="252" xmlns="http://www.w3.org/2000/svg" preserveAspectRatio="xMidYMid"><path d="M256 128C256 57.308 198.692 0 128 0 57.308 0 0 57.308 0 128c0 59.228 40.228 109.059 94.851 123.664 9.495-41.063 19.259-83.105 22.795-102.497 1.593-9.335-.962-12.313-7.468-15.815-26.03-10.379-52.005-2.087-71.335-40.307 50.412 7.413 77.155-4.307 89.951 17.133v.002c12.796-21.44 39.539-9.72 89.95-17.133-19.33 38.22-45.304 29.928-71.334 40.307-6.506 3.502-9.061 6.48-7.468 15.816 3.524 19.326 13.235 61.153 22.7 102.085C216.503 236.148 256 186.687 256 128" fill="#03CACF"/></svg>

<?xml version="1.0" encoding="UTF-8" standalone="no"?>
<svg width="256px" height="252px" viewBox="0 0 256 252" version="1.1" xmlns="http://www.w3.org/2000/svg" xmlns:xlink="http://www.w3.org/1999/xlink" preserveAspectRatio="xMidYMid">
    <g>
        <path d="M256,128 C256,57.308 198.692,0 128,0 C57.308,0 0,57.308 0,128 C0,187.228 40.228,237.059 94.851,251.664 C104.346,210.601 114.11,168.559 117.646,149.167 C119.239,139.832 116.684,136.854 110.178,133.352 C84.148,122.973 58.173,131.265 38.843,93.045 C89.255,100.458 115.998,88.738 128.794,110.178 L128.794,110.18 C141.59,88.74 168.333,100.46 218.744,93.047 C199.414,131.267 173.44,122.975 147.41,133.354 C140.904,136.856 138.349,139.834 139.942,149.17 C143.466,168.496 153.177,210.323 162.642,251.255 C216.503,236.148 256,186.687 256,128" fill="#03CACF"></path>
    </g>
</svg>
